X: 20892
T: The Beggar's Dance
%R: reel
B: James Oswald "The Caledonian Pocket Companion" v.2 p.89 #2
Z: 2019 John Chambers <jc:trillian.mit.edu>
M: C
L: 1/8
K: D
|:"_Brisk"\
d3a (gf)(ed) | (cd)(ec) A3G | (FD)(dc) (BG)(gf) | eAaf {f2}e4 |\
d3a (gf)(ed) | (cd)ec A3G | (FD)(dc) (BG)(ed) | cBA^G A4 :|
|:\
A3e (dc)(BA) | A2(BG) F3F | B3e dBge | (dB)(c^A) B3b |\
B3e (dc)(B=A) | BEed {d}c3d | e3a (gf)(ed) | eAag {g}f3e |
d3a (gf)(ed) | (cd)(ec) A3G | (FD)(dc) (BG)(gf) | (eA)(af) {f2}e4 |\
d3a (gf)(ed) | (cd)(ec) A3G | (FD)(dc) BG (gf) | b(gfe) d4 :|


